public/assets/icons/remove.svg

<svg width="26" height="26" viewBox="0 0 26 26" fill="none" xmlns="http://www.w3.org/2000/svg">
<g opacity="0.3">
<path d="M20.6655 5.3376C16.4384 1.11142 9.56398 1.11142 5.33691 5.3376C1.11166 9.56378 1.11166 16.44 5.33691 20.6662C7.45044 22.7788 10.226 23.8346 13.0016 23.8346C15.7773 23.8346 18.5519 22.7788 20.6655 20.6662C24.8916 16.44 24.8916 9.56378 20.6655 5.3376ZM17.4717 16.1952C17.8248 16.5484 17.8248 17.1192 17.4717 17.4724C17.3879 17.5563 17.2883 17.623 17.1788 17.6684C17.0692 17.7138 16.9517 17.7371 16.8331 17.737C16.7144 17.7371 16.597 17.7138 16.4874 17.6684C16.3778 17.623 16.2782 17.5563 16.1945 17.4724L13.0016 14.2786L9.80962 17.4714C9.64024 17.6408 9.41056 17.736 9.17103 17.7361C9.05241 17.7362 8.93493 17.7129 8.82534 17.6674C8.71575 17.622 8.61622 17.5554 8.53244 17.4714C8.1793 17.1183 8.1793 16.5465 8.53244 16.1943L11.7244 13.0014L8.53155 9.80854C8.17841 9.4554 8.17841 8.88366 8.53155 8.5314C8.88381 8.17826 9.45555 8.17826 9.80869 8.5314L13.0016 11.7243L16.1944 8.5314C16.5476 8.17826 17.1184 8.17826 17.4716 8.5314C17.8247 8.88366 17.8247 9.4554 17.4716 9.80854L14.2787 13.0014L17.4717 16.1952Z" fill="#333F4E"/>
</g>
</svg>

<svg xmlns="http://www.w3.org/2000/svg" width="26" height="26" fill="none"><path fill="#333F4E" d="M20.666 5.338c-4.228-4.227-11.102-4.227-15.33 0-4.224 4.226-4.224 11.102 0 15.328a10.8 10.8 0 0 0 7.666 3.169c2.775 0 5.55-1.056 7.664-3.169 4.226-4.226 4.226-11.102 0-15.328m-3.194 10.857a.902.902 0 1 1-1.277 1.277l-3.193-3.193L9.81 17.47a.904.904 0 1 1-1.278-1.277l3.192-3.193L8.532 9.81A.902.902 0 1 1 9.809 8.53l3.193 3.193 3.192-3.193a.902.902 0 1 1 1.278 1.278L14.279 13z" opacity=".3"/></svg>
